X: 17601
T: Hogmanay
R: strathspey
M: 4/4
K: Gmajor
D|:G>G DB, DGDB,|E<A AG GFED|G<G DB, DGDB,|1 E<A (G/F/E/F/) G3:|2 E<A (G/F/E/F/) G3 (B/c/)||
d>d BG BdBG|ceag gfed|g>g e>B egeB|gfe^d e3 (e/f/)|
gg ff e>ed>d|(ca)(Bg) (AG)(FD)|G>G DB, DGDB,|E<A GF G3||

